assets/icons/mood.svg

<svg width="24" height="25" viewBox="0 0 24 25" fill="none" xmlns="http://www.w3.org/2000/svg">
<g clip-path="url(#clip0_1_188)">
<mask id="mask0_1_188" style="mask-type:luminance" maskUnits="userSpaceOnUse" x="0" y="0" width="24" height="25">
<path d="M23.7551 0.666382H0.244911V24.6664H23.7551V0.666382Z" fill="white"/>
</mask>
<g mask="url(#mask0_1_188)">
<mask id="mask1_1_188" style="mask-type:luminance" maskUnits="userSpaceOnUse" x="0" y="0" width="24" height="25">
<path d="M23.7551 0.666382H0.244911V24.6664H23.7551V0.666382Z" fill="white"/>
</mask>
<g mask="url(#mask1_1_188)">
<path d="M0.244911 16.0366C0.244911 16.4243 0.552861 16.7387 0.932707 16.7387H4.25289C4.63274 16.7387 4.94068 16.4243 4.94068 16.0366C4.94068 14.3065 5.54852 12.7179 6.55887 11.4787L3.23573 8.10378C1.30242 10.2968 0.244911 13.0874 0.244911 16.0366ZM20.7652 8.10483L17.441 11.4785C17.7434 11.8493 18.0083 12.2503 18.232 12.6754L19.8098 12.0165C20.1616 11.8696 20.563 12.0416 20.7068 12.4005C20.8506 12.7594 20.6822 13.1694 20.3306 13.3162L18.76 13.972C18.9589 14.6414 19.0598 15.3371 19.0593 16.0365C19.0593 16.4243 19.3673 16.7386 19.7471 16.7386H23.0673C23.4472 16.7386 23.7551 16.4243 23.7551 16.0365C23.7551 13.0879 22.6979 10.2977 20.7652 8.10483ZM12 8.87488C13.6913 8.87488 15.2454 9.48163 16.4624 10.4915L19.7885 7.11603C17.6304 5.16671 14.8909 4.10046 12 4.10046C9.10958 4.10046 6.3705 5.16639 4.21263 7.11518L7.53748 10.4917C8.75448 9.48168 10.3087 8.87488 12 8.87488Z" fill="white"/>
<path d="M16.4065 13.4379C15.525 11.8865 13.8802 10.8408 12.0005 10.8408C9.19392 10.8408 6.91074 13.1716 6.91074 16.0365C6.91074 18.9015 9.19392 21.2323 12.0005 21.2323C14.8069 21.2323 17.0901 18.9015 17.0901 16.0365C17.0901 15.5879 17.0341 15.1524 16.9289 14.7369L18.7605 13.972C18.6269 13.523 18.45 13.0887 18.2324 12.6753L16.4065 13.4379ZM13.1009 13.9772C13.4808 13.9772 13.7887 14.2915 13.7887 14.6793C13.7887 15.0671 13.4808 15.3814 13.1009 15.3814C12.721 15.3814 12.4131 15.0671 12.4131 14.6793C12.4131 14.2915 12.721 13.9772 13.1009 13.9772ZM10.8999 13.9772C11.2798 13.9772 11.5877 14.2915 11.5877 14.6793C11.5877 15.0671 11.2798 15.3814 10.8999 15.3814C10.5201 15.3814 10.2122 15.0671 10.2122 14.6793C10.2122 14.2915 10.5201 13.9772 10.8999 13.9772ZM13.9267 17.625C13.3966 18.1099 12.7124 18.3769 12.0005 18.3769C11.2884 18.3769 10.6043 18.1099 10.0741 17.625C9.79123 17.3662 9.76737 16.9223 10.0208 16.6335C10.2744 16.3447 10.7092 16.3204 10.9921 16.5791C11.2696 16.8329 11.6277 16.9727 12.0005 16.9727C12.3732 16.9727 12.7313 16.833 13.0087 16.5791C13.2916 16.3204 13.7265 16.3447 13.98 16.6335C14.2335 16.9223 14.2096 17.3662 13.9267 17.625Z" fill="white"/>
</g>
</g>
</g>
<defs>
<clipPath id="clip0_1_188">
<rect width="24" height="24" fill="white" transform="translate(1.52588e-05 0.666382)"/>
</clipPath>
</defs>
</svg>

<svg xmlns="http://www.w3.org/2000/svg" width="24" height="25" fill="none" viewBox="0 0 24 25"><g clip-path="url(#a)"><mask id="b" width="24" height="25" x="0" y="0" maskUnits="userSpaceOnUse" style="mask-type:luminance"><path fill="#fff" d="M23.755.666H.245v24h23.51z"/></mask><g mask="url(#b)"><mask id="c" width="24" height="25" x="0" y="0" maskUnits="userSpaceOnUse" style="mask-type:luminance"><path fill="#fff" d="M23.755.666H.245v24h23.51z"/></mask><g fill="#fff" mask="url(#c)"><path d="M.245 16.037c0 .387.308.702.688.702h3.32c.38 0 .688-.315.688-.702 0-1.73.608-3.32 1.618-4.558L3.236 8.104a11.93 11.93 0 0 0-2.991 7.933m20.52-7.932-3.324 3.374q.454.557.791 1.196l1.578-.659a.683.683 0 0 1 .897.384.707.707 0 0 1-.376.916l-1.571.656c.199.67.3 1.365.3 2.065 0 .387.307.702.687.702h3.32c.38 0 .688-.315.688-.703a11.93 11.93 0 0 0-2.99-7.931M12 8.875c1.691 0 3.245.607 4.462 1.617l3.326-3.376C17.63 5.166 14.891 4.1 12 4.1S6.37 5.166 4.213 7.115l3.324 3.377A6.97 6.97 0 0 1 12 8.875"/><path d="M16.407 13.438C15.525 11.886 13.88 10.84 12 10.84c-2.807 0-5.09 2.33-5.09 5.196 0 2.864 2.283 5.195 5.09 5.195s5.09-2.33 5.09-5.195a5.3 5.3 0 0 0-.162-1.3l1.832-.765a7 7 0 0 0-.529-1.297zm-3.306.54c.38 0 .688.313.688.701a.695.695 0 0 1-.688.702.695.695 0 0 1-.688-.702c0-.388.308-.702.688-.702m-2.201 0c.38 0 .688.313.688.701a.695.695 0 0 1-.688.702.695.695 0 0 1-.688-.702c0-.388.308-.702.688-.702m3.027 3.647a2.85 2.85 0 0 1-1.926.752 2.85 2.85 0 0 1-1.927-.752.713.713 0 0 1-.053-.991.68.68 0 0 1 .971-.055 1.49 1.49 0 0 0 2.017 0 .68.68 0 0 1 .971.055.71.71 0 0 1-.053.991"/></g></g></g><defs><clipPath id="a"><path fill="#fff" d="M0 .666h24v24H0z"/></clipPath></defs></svg>
